src/topics/icons/copyleft.svg

<svg height="256" preserveAspectRatio="xMidYMid" viewBox="0 0 256 256" width="256" xmlns="http://www.w3.org/2000/svg"><path d="m128 256c70.692448 0 128-57.307552 128-128s-57.307552-128-128-128-128 57.307552-128 128 57.307552 128 128 128zm0-26.122449c-56.2654178 0-101.877551-45.612133-101.877551-101.877551 0-56.2654178 45.6121332-101.877551 101.877551-101.877551 56.265418 0 101.877551 45.6121332 101.877551 101.877551 0 56.265418-45.612133 101.877551-101.877551 101.877551zm-1.044898-173.7142857c-33.9591836 0-62.432653 23.7714286-69.7469387 55.6408167h34.2204081c6.2693878-13.5836738 19.8530616-22.9877555 35.5265306-22.9877555 21.681633 0 39.183674 17.5020405 39.183674 39.1836735s-17.502041 39.183673-39.183674 39.183673c-15.673469 0-29.2571428-9.404081-35.5265306-22.72653h-34.2204081c7.3142857 31.608163 35.7877551 55.379592 69.7469387 55.379592 39.706122 0 71.836735-32.130613 71.836735-71.836735 0-39.7061224-32.130613-71.8367347-71.836735-71.8367347z"/></svg>

<?xml version="1.0" encoding="UTF-8" standalone="no"?>
<svg width="256px" height="256px" viewBox="0 0 256 256" version="1.1" xmlns="http://www.w3.org/2000/svg" xmlns:xlink="http://www.w3.org/1999/xlink" preserveAspectRatio="xMidYMid">
    <g>
        <path d="M128,256 C198.692448,256 256,198.692448 256,128 C256,57.307552 198.692448,0 128,0 C57.307552,0 0,57.307552 0,128 C0,198.692448 57.307552,256 128,256 L128,256 Z M128,229.877551 C71.7345822,229.877551 26.122449,184.265418 26.122449,128 C26.122449,71.7345822 71.7345822,26.122449 128,26.122449 C184.265418,26.122449 229.877551,71.7345822 229.877551,128 C229.877551,184.265418 184.265418,229.877551 128,229.877551 L128,229.877551 Z M126.955102,56.1632653 C92.9959184,56.1632653 64.522449,79.9346939 57.2081633,111.804082 L91.4285714,111.804082 C97.6979592,98.2204082 111.281633,88.8163265 126.955102,88.8163265 C148.636735,88.8163265 166.138776,106.318367 166.138776,128 C166.138776,149.681633 148.636735,167.183673 126.955102,167.183673 C111.281633,167.183673 97.6979592,157.779592 91.4285714,144.457143 L57.2081633,144.457143 C64.522449,176.065306 92.9959184,199.836735 126.955102,199.836735 C166.661224,199.836735 198.791837,167.706122 198.791837,128 C198.791837,88.2938776 166.661224,56.1632653 126.955102,56.1632653 L126.955102,56.1632653 Z" fill="#000000"></path>
    </g>
</svg>
